X:61
T:Jack's Maggot
M:C|
L:1/8
K:D
%
"D" d2 D2 F2 A2 | "G" BABc "A" d2 e2 | "D" fg a2 "G" Bc d2 | "Em7"e3 f "A7"e2 c2 |
"D" d2 D2 F2 A2 | "G" Bc d2 "A" c2 ag | "D" f2 d2 "A7" e2 c2 | [1 "D" d4 d4 :| [2 "D" d4 d2 ||
%
%
